mono/maestro.svg

<svg xmlns="http://www.w3.org/2000/svg" fill="none" viewBox="0 0 780 500"><path fill="#393939" d="M298.417 442.641c.16-2.708 1.108-5.309 2.727-7.485 1.62-2.176 3.841-3.831 6.389-4.76 2.548-.93 5.313-1.094 7.953-.473 2.64.622 5.041 2.002 6.907 3.971 1.866 1.968 3.115 4.44 3.594 7.11.479 2.67.167 5.421-.898 7.916s-2.837 4.623-5.096 6.124c-2.26 1.501-4.909 2.307-7.621 2.322-1.916.044-3.819-.311-5.589-1.044-1.77-.733-3.368-1.828-4.69-3.214-1.323-1.386-2.342-3.033-2.991-4.835-.65-1.803-.916-3.721-.781-5.632h.096ZM549.453 428.206c-1.96-.027-3.906.333-5.726 1.058-1.715.688-3.271 1.72-4.572 3.032-1.327 1.381-2.358 3.018-3.031 4.812-1.47 3.842-1.47 8.091 0 11.933.672 1.794 1.703 3.431 3.031 4.812 1.3 1.313 2.856 2.345 4.572 3.031 3.666 1.436 7.738 1.436 11.404 0 1.797-.664 3.436-1.697 4.812-3.031 1.33-1.379 2.362-3.017 3.031-4.812 1.47-3.842 1.47-8.091 0-11.933-.669-1.795-1.701-3.433-3.031-4.812-1.376-1.335-3.015-2.367-4.812-3.032-1.815-.831-3.779-1.289-5.774-1.347l.096.289ZM355.775 438.599c.186-3.054 1.547-5.918 3.799-7.991 2.252-2.072 5.219-3.192 8.278-3.124 1.498-.032 2.988.231 4.383.775 1.396.544 2.671 1.357 3.753 2.394 1.081 1.037 1.948 2.276 2.55 3.648.602 1.372.928 2.849.959 4.346l-23.722-.048ZM583.232 462.129v1.155h1.059c.188.056.389.056.577 0 .034-.067.052-.141.052-.216 0-.076-.018-.15-.052-.217.034-.067.052-.141.052-.216 0-.076-.018-.15-.052-.217-.188-.056-.389-.056-.577 0l-1.059-.289Z"/><path fill="#393939" fill-rule="evenodd" d="M584.002 467.037c.48.003.956-.095 1.395-.288.414-.185.79-.446 1.107-.77.408-.411.71-.915.879-1.47.169-.553.201-1.141.092-1.709-.109-.569-.356-1.103-.718-1.555-.362-.452-.828-.809-1.36-1.04-.44-.192-.915-.291-1.395-.289-.48.002-.954.101-1.395.289-.433.177-.825.439-1.155.769-.602.657-.936 1.516-.936 2.406 0 .891.334 1.75.936 2.406.333.338.73.605 1.168.787.438.182.908.274 1.382.272v.192Zm.289-5.726c.449-.021.892.115 1.251.385.147.122.263.277.339.453.075.176.107.367.094.558.007.16-.02.319-.078.468-.058.149-.146.285-.259.398-.279.253-.635.406-1.01.433l1.395 1.588h-1.107l-1.299-1.588h-.433v1.588h-.914v-4.427l2.021.144Z" clip-rule="evenodd"/><path fill="#393939" fill-rule="evenodd" d="M736.992 0H41.512C18.595 0 0 18.994 0 42.426v414.65c0 23.437 18.585 42.426 41.512 42.426h695.48c22.917 0 41.512-18.994 41.512-42.426V42.426C778.503 18.99 759.918 0 736.992 0ZM279.314 465.594v-28.871c.168-2.422-.182-4.852-1.026-7.128-.845-2.276-2.165-4.346-3.872-6.071-1.708-1.726-3.763-3.068-6.03-3.937-2.267-.868-4.693-1.244-7.117-1.101-3.18-.209-6.358.44-9.202 1.879-2.844 1.439-5.249 3.615-6.965 6.301-1.565-2.606-3.803-4.74-6.479-6.18-2.676-1.44-5.691-2.131-8.727-2-2.646-.134-5.282.426-7.645 1.625-2.364 1.198-4.373 2.993-5.828 5.207v-5.678h-10.009v45.954h10.105v-25.455c-.224-1.575-.095-3.179.377-4.698.473-1.519 1.277-2.913 2.355-4.083 1.077-1.17 2.402-2.085 3.876-2.68 1.475-.596 3.064-.855 4.652-.761 6.64 0 10.008 4.331 10.008 12.126v25.551h10.105v-25.455c-.206-1.571-.064-3.169.415-4.68.479-1.511 1.284-2.898 2.357-4.064 1.074-1.166 2.391-2.081 3.858-2.682 1.466-.601 3.047-.873 4.63-.796 6.833 0 10.105 4.331 10.105 12.126v25.551h10.057Zm56.299-22.953v-22.952h-10.105v5.581c-1.697-2.19-3.892-3.943-6.403-5.115-2.51-1.171-5.264-1.727-8.033-1.621-6.381 0-12.5 2.535-17.012 7.047-4.512 4.512-7.047 10.631-7.047 17.012s2.535 12.501 7.047 17.013c4.512 4.512 10.631 7.047 17.012 7.047 2.769.106 5.523-.45 8.033-1.622 2.511-1.172 4.706-2.925 6.403-5.115v5.582h10.009l.096-22.857Zm213.84-24.059c3.295-.009 6.561.612 9.624 1.828 2.923 1.171 5.587 2.904 7.843 5.101 2.226 2.177 3.993 4.779 5.197 7.651 2.514 6.169 2.514 13.078 0 19.247-1.202 2.873-2.97 5.475-5.197 7.651-2.256 2.197-4.92 3.93-7.843 5.101-6.346 2.465-13.384 2.465-19.729 0-2.91-1.17-5.559-2.903-7.795-5.101-2.205-2.185-3.955-4.785-5.149-7.651-2.509-6.17-2.509-13.077 0-19.247 1.194-2.866 2.944-5.466 5.149-7.651 2.236-2.198 4.885-3.931 7.795-5.101 3.172-1.315 6.574-1.985 10.009-1.973l.096.145Zm-159.466 24.059c0-14.435-8.95-24.059-21.798-24.059-6.381.089-12.465 2.71-16.914 7.285-4.448 4.575-6.897 10.73-6.808 17.111.089 6.381 2.71 12.465 7.285 16.914 4.575 4.449 10.73 6.898 17.111 6.809 6.85.234 13.548-2.061 18.814-6.448l-4.811-7.411c-3.8 3.048-8.507 4.741-13.378 4.812-3.308.285-6.597-.732-9.167-2.835-2.57-2.103-4.218-5.125-4.594-8.425h34.116c.144-1.203.144-2.405.144-3.753Zm42.104-11.26c-4.394-2.53-9.365-3.889-14.436-3.945-5.485 0-8.757 2.021-8.757 5.389 0 3.368 3.464 3.946 7.795 4.523l4.812.674c10.009 1.443 16.072 5.678 16.072 13.762s-7.699 15.013-20.932 15.013c-7.092.189-14.058-1.903-19.873-5.967l4.812-7.795c4.416 3.276 9.805 4.971 15.302 4.812 6.832 0 10.489-2.021 10.489-5.582 0-2.598-2.598-4.042-8.084-4.812l-4.811-.673c-10.298-1.444-15.88-6.064-15.88-13.57 0-9.143 7.507-14.724 19.248-14.724 6.571-.221 13.068 1.45 18.718 4.812l-4.475 8.083Zm48.119-2.598h-16.312v20.739c0 4.812 1.636 7.699 6.64 7.699 3.123-.103 6.17-.997 8.854-2.598l2.887 8.565c-3.752 2.341-8.089 3.576-12.511 3.561-11.837 0-15.975-6.352-15.975-17.034v-20.932h-9.335v-9.143h9.335v-13.954h10.105v13.954h16.312v9.143Zm34.597-10.297c2.428.009 4.836.432 7.122 1.251l-3.08 9.624c-1.989-.793-4.114-1.186-6.255-1.155-6.544 0-9.624 4.234-9.624 11.837v25.743h-10.009v-45.953h9.913v5.582c1.228-2.11 3.003-3.85 5.137-5.035 2.134-1.186 4.549-1.774 6.989-1.702l-.193-.192Zm69.195 40.419c.626-.007 1.247.107 1.829.337.552.226 1.058.552 1.491.963.423.414.766.904 1.011 1.443.243.562.369 1.168.369 1.781 0 .612-.126 1.218-.369 1.78-.245.539-.588 1.029-1.011 1.444-.433.41-.939.736-1.491.962-.576.254-1.199.385-1.829.385-.912-.007-1.804-.273-2.57-.767-.767-.494-1.377-1.196-1.761-2.024-.241-.563-.365-1.168-.365-1.78 0-.613.124-1.218.365-1.781.246-.539.588-1.029 1.011-1.443.433-.411.939-.737 1.492-.963.506-.201 1.043-.315 1.587-.337h.241Zm-301.015-80.447c-95.627 0-173.354-77.603-173.354-173.354 0-95.376 77.727-173.104 173.354-172.9788 34.045 0 67.464 10.1383 95.751 28.9131-90.619 74.2227-91.245 214.2827 0 288.5057-28.287 18.65-61.706 28.914-95.751 28.914Zm107.016-37.175c88.242-68.84 87.866-203.018 0-272.2341-87.866 69.2161-88.241 203.5191 0 272.2341ZM497.019 32c95.627 0 173.354 77.728 173.354 173.104 0 95.751-77.727 173.354-173.354 173.228-33.794 0-67.464-10.138-95.751-28.913 91.621-73.847 90.244-214.283 0-288.5058C429.555 42.2636 462.974 32 497.019 32Z" clip-rule="evenodd"/></svg>

<svg width="780" height="500" viewBox="0 0 780 500" fill="none" xmlns="http://www.w3.org/2000/svg">
<path d="M298.417 442.641C298.577 439.933 299.525 437.332 301.144 435.156C302.764 432.98 304.985 431.325 307.533 430.396C310.081 429.466 312.846 429.302 315.486 429.923C318.126 430.545 320.527 431.925 322.393 433.894C324.259 435.862 325.508 438.334 325.987 441.004C326.466 443.674 326.154 446.425 325.089 448.92C324.024 451.415 322.252 453.543 319.993 455.044C317.733 456.545 315.084 457.351 312.372 457.366C310.456 457.41 308.553 457.055 306.783 456.322C305.013 455.589 303.415 454.494 302.093 453.108C300.77 451.722 299.751 450.075 299.102 448.273C298.452 446.47 298.186 444.552 298.321 442.641H298.417Z" fill="#393939"/>
<path d="M549.453 428.206C547.493 428.179 545.547 428.539 543.727 429.264C542.012 429.952 540.456 430.984 539.155 432.296C537.828 433.677 536.797 435.314 536.124 437.108C534.654 440.95 534.654 445.199 536.124 449.041C536.796 450.835 537.827 452.472 539.155 453.853C540.455 455.166 542.011 456.198 543.727 456.884C547.393 458.32 551.465 458.32 555.131 456.884C556.928 456.22 558.567 455.187 559.943 453.853C561.273 452.474 562.305 450.836 562.974 449.041C564.444 445.199 564.444 440.95 562.974 437.108C562.305 435.313 561.273 433.675 559.943 432.296C558.567 430.961 556.928 429.929 555.131 429.264C553.316 428.433 551.352 427.975 549.357 427.917L549.453 428.206Z" fill="#393939"/>
<path d="M355.775 438.599C355.961 435.545 357.322 432.681 359.574 430.608C361.826 428.536 364.793 427.416 367.852 427.484C369.35 427.452 370.84 427.715 372.235 428.259C373.631 428.803 374.906 429.616 375.988 430.653C377.069 431.69 377.936 432.929 378.538 434.301C379.14 435.673 379.466 437.15 379.497 438.647L355.775 438.599Z" fill="#393939"/>
<path d="M583.232 462.129V463.284H584.291C584.479 463.34 584.68 463.34 584.868 463.284C584.902 463.217 584.92 463.143 584.92 463.068C584.92 462.992 584.902 462.918 584.868 462.851C584.902 462.784 584.92 462.71 584.92 462.635C584.92 462.559 584.902 462.485 584.868 462.418C584.68 462.362 584.479 462.362 584.291 462.418L583.232 462.129Z" fill="#393939"/>
<path fill-rule="evenodd" clip-rule="evenodd" d="M584.002 467.037C584.482 467.04 584.958 466.942 585.397 466.749C585.811 466.564 586.187 466.303 586.504 465.979C586.912 465.568 587.214 465.064 587.383 464.509C587.552 463.956 587.584 463.368 587.475 462.8C587.366 462.231 587.119 461.697 586.757 461.245C586.395 460.793 585.929 460.436 585.397 460.205C584.957 460.013 584.482 459.914 584.002 459.916C583.522 459.918 583.048 460.017 582.607 460.205C582.174 460.382 581.782 460.644 581.452 460.974C580.85 461.631 580.516 462.49 580.516 463.38C580.516 464.271 580.85 465.13 581.452 465.786C581.785 466.124 582.182 466.391 582.62 466.573C583.058 466.755 583.528 466.847 584.002 466.845V467.037ZM584.291 461.311C584.74 461.29 585.183 461.426 585.542 461.696C585.689 461.818 585.805 461.973 585.881 462.149C585.956 462.325 585.988 462.516 585.975 462.707C585.982 462.867 585.955 463.026 585.897 463.175C585.839 463.324 585.751 463.46 585.638 463.573C585.359 463.826 585.003 463.979 584.628 464.006L586.023 465.594H584.916L583.617 464.006H583.184V465.594H582.27V461.167L584.291 461.311Z" fill="#393939"/>
<path fill-rule="evenodd" clip-rule="evenodd" d="M736.992 0H41.512C18.595 0 0 18.994 0 42.426V457.076C0 480.513 18.585 499.502 41.512 499.502H736.992C759.909 499.502 778.504 480.508 778.504 457.076V42.426C778.503 18.99 759.918 0 736.992 0ZM279.314 465.594V436.723C279.482 434.301 279.132 431.871 278.288 429.595C277.443 427.319 276.123 425.249 274.416 423.524C272.708 421.798 270.653 420.456 268.386 419.587C266.119 418.719 263.693 418.343 261.269 418.486C258.089 418.277 254.911 418.926 252.067 420.365C249.223 421.804 246.818 423.98 245.102 426.666C243.537 424.06 241.299 421.926 238.623 420.486C235.947 419.046 232.932 418.355 229.896 418.486C227.25 418.352 224.614 418.912 222.251 420.111C219.887 421.309 217.878 423.104 216.423 425.318V419.64H206.414V465.594H216.519V440.139C216.295 438.564 216.424 436.96 216.896 435.441C217.369 433.922 218.173 432.528 219.251 431.358C220.328 430.188 221.653 429.273 223.127 428.678C224.602 428.082 226.191 427.823 227.779 427.917C234.419 427.917 237.787 432.248 237.787 440.043V465.594H247.892V440.139C247.686 438.568 247.828 436.97 248.307 435.459C248.786 433.948 249.591 432.561 250.664 431.395C251.738 430.229 253.055 429.314 254.522 428.713C255.988 428.112 257.569 427.84 259.152 427.917C265.985 427.917 269.257 432.248 269.257 440.043V465.594H279.314ZM335.613 442.641V419.689H325.508V425.27C323.811 423.08 321.616 421.327 319.105 420.155C316.595 418.984 313.841 418.428 311.072 418.534C304.691 418.534 298.572 421.069 294.06 425.581C289.548 430.093 287.013 436.212 287.013 442.593C287.013 448.974 289.548 455.094 294.06 459.606C298.572 464.118 304.691 466.653 311.072 466.653C313.841 466.759 316.595 466.203 319.105 465.031C321.616 463.859 323.811 462.106 325.508 459.916V465.498H335.517L335.613 442.641ZM549.453 418.582C552.748 418.573 556.014 419.194 559.077 420.41C562 421.581 564.664 423.314 566.92 425.511C569.146 427.688 570.913 430.29 572.117 433.162C574.631 439.331 574.631 446.24 572.117 452.409C570.915 455.282 569.147 457.884 566.92 460.06C564.664 462.257 562 463.99 559.077 465.161C552.731 467.626 545.693 467.626 539.348 465.161C536.438 463.991 533.789 462.258 531.553 460.06C529.348 457.875 527.598 455.275 526.404 452.409C523.895 446.239 523.895 439.332 526.404 433.162C527.598 430.296 529.348 427.696 531.553 425.511C533.789 423.313 536.438 421.58 539.348 420.41C542.52 419.095 545.922 418.425 549.357 418.437L549.453 418.582ZM389.987 442.641C389.987 428.206 381.037 418.582 368.189 418.582C361.808 418.671 355.724 421.292 351.275 425.867C346.827 430.442 344.378 436.597 344.467 442.978C344.556 449.359 347.177 455.443 351.752 459.892C356.327 464.341 362.482 466.79 368.863 466.701C375.713 466.935 382.411 464.64 387.677 460.253L382.866 452.842C379.066 455.89 374.359 457.583 369.488 457.654C366.18 457.939 362.891 456.922 360.321 454.819C357.751 452.716 356.103 449.694 355.727 446.394H389.843C389.987 445.191 389.987 443.989 389.987 442.641ZM432.091 431.381C427.697 428.851 422.726 427.492 417.655 427.436C412.17 427.436 408.898 429.457 408.898 432.825C408.898 436.193 412.362 436.771 416.693 437.348L421.505 438.022C431.514 439.465 437.577 443.7 437.577 451.784C437.577 459.868 429.878 466.797 416.645 466.797C409.553 466.986 402.587 464.894 396.772 460.83L401.584 453.035C406 456.311 411.389 458.006 416.886 457.847C423.718 457.847 427.375 455.826 427.375 452.265C427.375 449.667 424.777 448.223 419.291 447.453L414.48 446.78C404.182 445.336 398.6 440.716 398.6 433.21C398.6 424.067 406.107 418.486 417.848 418.486C424.419 418.265 430.916 419.936 436.566 423.298L432.091 431.381ZM480.21 428.783H463.898V449.522C463.898 454.334 465.534 457.221 470.538 457.221C473.661 457.118 476.708 456.224 479.392 454.623L482.279 463.188C478.527 465.529 474.19 466.764 469.768 466.749C457.931 466.749 453.793 460.397 453.793 449.715V428.783H444.458V419.64H453.793V405.686H463.898V419.64H480.21V428.783ZM514.807 418.486C517.235 418.495 519.643 418.918 521.929 419.737L518.849 429.361C516.86 428.568 514.735 428.175 512.594 428.206C506.05 428.206 502.97 432.44 502.97 440.043V465.786H492.961V419.833H502.874V425.415C504.102 423.305 505.877 421.565 508.011 420.38C510.145 419.194 512.56 418.606 515 418.678L514.807 418.486ZM584.002 458.905C584.628 458.898 585.249 459.012 585.831 459.242C586.383 459.468 586.889 459.794 587.322 460.205C587.745 460.619 588.088 461.109 588.333 461.648C588.576 462.21 588.702 462.816 588.702 463.429C588.702 464.041 588.576 464.647 588.333 465.209C588.088 465.748 587.745 466.238 587.322 466.653C586.889 467.063 586.383 467.389 585.831 467.615C585.255 467.869 584.632 468 584.002 468C583.09 467.993 582.198 467.727 581.432 467.233C580.665 466.739 580.055 466.037 579.671 465.209C579.43 464.646 579.306 464.041 579.306 463.429C579.306 462.816 579.43 462.211 579.671 461.648C579.917 461.109 580.259 460.619 580.682 460.205C581.115 459.794 581.621 459.468 582.174 459.242C582.68 459.041 583.217 458.927 583.761 458.905H584.002ZM282.987 378.458C187.36 378.458 109.633 300.855 109.633 205.104C109.633 109.728 187.36 32 282.987 32.1252C317.032 32.1252 350.451 42.2635 378.738 61.0383C288.119 135.261 287.493 275.321 378.738 349.544C350.451 368.194 317.032 378.458 282.987 378.458ZM390.003 341.283C478.245 272.443 477.869 138.265 390.003 69.0489C302.137 138.265 301.762 272.568 390.003 341.283ZM497.019 32C592.646 32 670.373 109.728 670.373 205.104C670.373 300.855 592.646 378.458 497.019 378.332C463.225 378.332 429.555 368.194 401.268 349.419C492.889 275.572 491.512 135.136 401.268 60.9132C429.555 42.2636 462.974 32 497.019 32Z" fill="#393939"/>
</svg>
